X: 2157
T: LORD EGLINTOUN'S AULD MAN
Q: "Strathspey."
R: Strathspey.
%R: strathspey
B: James Kerr "Merry Melodies" v.2 p.18 #157
Z: 2016 John Chambers <jc:trillian.mit.edu>
M: C
L: 1/16
%%slurgraces yes
%%graceslurs yes
K: D
(udB) |\
AD3 GFED AD3 D2(dB) | AD3 GFED {cB}A6 (udc) |\
vBE3G3uE vBE3E3uc | vd3ue gfed B4 (A3B) |\
vd3ve(fa3)  (ef3)ud3uB |
vAF3D3uF A3Bd3e |\
f3de3B d3AB3F | EEE2 F3A B6 |]|\
(ufg) |\
a3df3d ad3 d2(fg) | a3df3d a6 (fa) |
b3eg3e be3 e2(dB) | vd3ue gfed B4 (AB3) |\
d3e(fa3)  (ef3)d3B | A3FD3F A3Bd3e |\
f3de3B d3AB3F | EEE2 F3A B6 |]
